X:16768
T:The Goban
M:6/8
L:1/8
C:Maire Breathnach
S:Maire Breathnach
R:Jig
D:Angels' Candles
K:G
B|:cAB AGE|DEG ddB|cAB AGA|EFG A2B|cAB AGE|\
DEG ddB|cAB AGA|EFG A2B::ccc ddd|ecA BGE|\
ABA AGE|DEF GAB|ccc dcd|eaf ged|BcA BAG|\
1EFG A2B:|2EFG Acd||eab age|def g2a|gec =fed|\
cAE GBd|eab age|def g2a|gec =fed|cAG Acd|\
eab age|def g2a|gec =fed|cAE GBd|eab c'2b|\
age g2b|age dBG|EFG A2B||
